!!!!SEGMENT: pl-kk--kk-i-3--028_anonim--pro-festis-pentecostes-alleluia-veni-sancte-spiritus.krn
!!!cenid: 15xx:636
!!!COM: Anonim
!!!COM-rismid: pe30004985
!!!CDT:
!!!CNT:
!!!OTL: Pro festis Pentecostes/Alleluia, Veni Sancte Spiritus
!!!PDT:
!!!AGN:
!!!SMS-siglum: PL-Kk
!!!SMS-shelfmark: Kk.I.3
!!!SMS-shelfwork: 028 W
!!!SMS-variant:
!!!SMS-altvar:
!!!NIFC-rismid:
!!!URL-scan: http://repozytorium.nifc.pl/skany/pl-kk-nut--i-3
!!!ONB-nifc: UWAGA: Discantus (s. 96v-97v, skan 0099-0100), Tenor (s. 71v-72v, skan 0244-0245), Bassus (s. 94r-95r, skan 0397-0398)
!!!key:
**kern	**text	**text	**kern	**text	**text	**kern	**text	**text
*part3	*part3	*part3	*part2	*part2	*part2	*part1	*part1	*part1
*staff3	*staff3	*staff3	*staff2	*staff2	*staff2	*staff1	*staff1	*staff1
*I"[Bassus]	*	*	*I"[Tenor]	*	*	*I"[Discantus]	*	*
*I'B	*	*	*I'T	*	*	*I'S	*	*
*ICvox	*	*	*ICvox	*	*	*ICvox	*	*
*Ibass	*	*	*Itenor	*	*	*Isoprn	*	*
*clefF4	*	*	*clefF3	*	*	*clefC3	*	*
*k[]	*	*	*k[]	*	*	*k[]	*	*
*C:	*	*	*C:	*	*	*C:	*	*
*yyM2/1	*	*	*yyM2/1	*	*	*yyM2/1	*	*
=1	=1	=1	=1	=1	=1	=1	=1	=1
!!LO:TX:t=P:problem: brak zapisanego metrum	!	!	!	!	!	!	!	!
*	*	*	*	*	*	*8va	*	*
!	!	!	!	!	!	!LO:TX:t=P:problem= dźwięki zapisane o oktawę wyżej niż w źródle przez zastosowanie klucza wiolinowego, konieczność zastosowania przenośnika oktawowego dla poprawnego wyświetlania dźwięków	!	!
1G	Al-	.	1C	Al-	.	1cc	Al-	.
2F\	-le-	.	1D	-le-	.	2a/	-le-	.
1D	.	.	.	.	.	2b\	.	.
=2	=2	=2	=2	=2	=2	=2	=2	=2
*	*	*	*lig	*	*	*	*	*
.	.	.	1E	.	.	2g/	.	.
2C/	.	.	.	.	.	1cc	.	.
*lig	*	*	*	*	*	*	*	*
1D	.	.	1F	.	.	.	.	.
.	.	.	.	.	.	2b\	.	.
*	*	*	*Xlig	*	*	*	*	*
=3	=3	=3	=3	=3	=3	=3	=3	=3
*	*	*	*lig	*	*	*	*	*
1AA	.	.	1E	.	.	2cc\	.	.
.	.	.	.	.	.	1a	.	.
*Xlig	*	*	*	*	*	*	*	*
1BB	.	.	1D	.	.	.	.	.
.	.	.	.	.	.	2g/	-lu-	.
*	*	*	*Xlig	*	*	*	*	*
=4	=4	=4	=4	=4	=4	=4	=4	=4
!	!	!	!	!	!	!LO:TX:t=P:problem=signum congruentiae	!	!
!	!	!	!	!	!	!LO:SIC:v:t=custos b	!	!
1AA	-lu-	.	1C	-lu-	.	0a	-ia	.
!LO:TX:t=P:problem=signum congruentiae	!	!	!LO:TX:t=P:problem=signum congruentiae	!	!	!	!	!
1D	-ia	.	1D	-ia	.	.	.	.
!	!	!	!	!	!	!LO:LB:g=original	!	!
=5	=5	=5	=5	=5	=5	=5	=5	=5
!LO:SIC:v:t=custos GG	!	!	!	!	!	!	!	!
1GG	.	.	0G	.	.	1b	.	.
!LO:LB:g=original	!	!	!	!	!	!	!	!
2GG/	.	.	.	.	.	2b\	.	.
1C	.	.	.	.	.	1cc	.	.
=6	=6	=6	=6	=6	=6	=6	=6	=6
*	*	*	*lig	*	*	*	*	*
.	.	.	1E	.	.	.	.	.
2C/	.	.	.	.	.	2cc\	.	.
!	!	!	!LO:SIC:v:t=custos G	!	!	!	!	!
2D\	.	.	1F	.	.	2a/	.	.
2F\	.	.	.	.	.	1dd	.	.
*	*	*	*Xlig	*	*	*	*	*
!	!	!	!LO:LB:g=original	!	!	!	!	!
=7	=7	=7	=7	=7	=7	=7	=7	=7
*	*	*	*lig	*	*	*	*	*
1E	.	.	1G	.	.	.	.	.
.	.	.	.	.	.	2cc\	.	.
1D	.	.	1F	.	.	1dd	.	.
.	.	.	.	.	.	.	.	.
*	*	*	*Xlig	*	*	*	*	*
=8	=8	=8	=8	=8	=8	=8	=8	=8
*	*	*	*lig	*	*	*	*	*
1G	.	.	1E	.	.	1ee	.	.
2F\	.	.	1D	.	.	2ff\	.	.
1D	.	.	.	.	.	2f/	.	.
*	*	*	*Xlig	*	*	*	*	*
=9	=9	=9	=9	=9	=9	=9	=9	=9
*	*	*	*lig	*	*	*	*	*
.	.	.	1F	.	.	2a/	.	.
2BB-X/	.	.	.	.	.	2b\	.	.
*lig	*	*	*	*	*	*lig	*	*
1C	.	.	1E	.	.	1g	.	.
*	*	*	*Xlig	*	*	*	*	*
=10	=10	=10	=10	=10	=10	=10	=10	=10
!	!	!	!	!	!	!LO:SIC:v:t=custos f	!	!
1AA	.	.	1C	.	.	1a	.	.
*Xlig	*	*	*	*	*	*Xlig	*	*
1D	.	.	0D	.	.	0f	.	.
!	!	!	!	!	!	!LO:LB:g=original	!	!
=11	=11	=11	=11	=11	=11	=11	=11	=11
!LO:SIC:v:t=custos BB	!	!	!	!	!	!	!	!
2D/	.	.	.	.	.	.	.	.
!LO:LB:g=original	!	!	!	!	!	!	!	!
1BB	.	.	.	.	.	.	.	.
*	*	*	*lig	*	*	*	*	*
.	.	.	1A	.	.	2f/	.	.
2AA/	.	.	.	.	.	1ff	.	.
=12	=12	=12	=12	=12	=12	=12	=12	=12
1C	.	.	1G	.	.	.	.	.
.	.	.	.	.	.	2ee\	.	.
*	*	*	*Xlig	*	*	*	*	*
*	*	*	*lig	*	*	*	*	*
1BB	.	.	1B	.	.	1ff	.	.
=13	=13	=13	=13	=13	=13	=13	=13	=13
2D\	.	.	1A	.	.	2ff\	.	.
1F	.	.	.	.	.	2cc\	.	.
*	*	*	*Xlig	*	*	*	*	*
.	.	.	1G	.	.	2dd\	.	.
2E\	.	.	.	.	.	1ee	.	.
=14	=14	=14	=14	=14	=14	=14	=14	=14
1F	.	.	1F	.	.	.	.	.
.	.	.	.	.	.	1dd	.	.
*lig	*	*	*lig	*	*	*	*	*
1G	.	.	1E	.	.	.	.	.
.	.	.	.	.	.	2cc\	.	.
=15	=15	=15	=15	=15	=15	=15	=15	=15
1F	.	.	1D	.	.	1dd	.	.
*Xlig	*	*	*Xlig	*	*	*	*	*
*lig	*	*	*lig	*	*	*	*	*
1D	.	.	1F	.	.	2dd\	.	.
.	.	.	.	.	.	1ff	.	.
=16	=16	=16	=16	=16	=16	=16	=16	=16
1C	.	.	1G	.	.	.	.	.
!	!	!	!	!	!	!LO:SIC:v:t=custos ff	!	!
.	.	.	.	.	.	2ee\	.	.
*Xlig	*	*	*Xlig	*	*	*	*	*
*	*	*	*lig	*	*	*	*	*
!	!	!	!	!	!	!LO:LB:g=original	!	!
1FF	.	.	1F	.	.	2ff\	.	.
.	.	.	.	.	.	2f/	.	.
=17	=17	=17	=17	=17	=17	=17	=17	=17
*lig	*	*	*	*	*	*	*	*
1C	.	.	1E	.	.	2g/	.	.
.	.	.	.	.	.	1cc	.	.
*	*	*	*Xlig	*	*	*	*	*
1AA	.	.	1C	.	.	.	.	.
.	.	.	.	.	.	2a/	.	.
*Xlig	*	*	*	*	*	*	*	*
=18	=18	=18	=18	=18	=18	=18	=18	=18
*	*	*	*lig	*	*	*	*	*
2GG/	.	.	1E	.	.	2b\	.	.
!LO:SIC:v:t=custos BB	!	!	!	!	!	!	!	!
2AA/	.	.	.	.	.	2cc\	.	.
!	!	!	!LO:SIC:v:t=custos E	!	!	!	!	!
!LO:LB:g=original	!	!	!	!	!	!	!	!
1BB	.	.	1D	.	.	1dd	.	.
*	*	*	*Xlig	*	*	*	*	*
!	!	!	!LO:LB:g=original	!	!	!	!	!
=19	=19	=19	=19	=19	=19	=19	=19	=19
*	*	*	*lig	*	*	*	*	*
1AA	.	.	1E	.	.	1cc	.	.
2FF/	.	.	1F	.	.	2cc\	.	.
1F	.	.	.	.	.	2a/	.	.
*	*	*	*Xlig	*	*	*	*	*
=20	=20	=20	=20	=20	=20	=20	=20	=20
!	!	!	!LO:N:vis=00	!	!	!	!	!
!	!	!	!	!	!	!LO:SIC:v:t=custos cc	!	!
.	.	.	0D;	.	.	0a;	.	.
2D\	.	.	.	.	.	.	.	.
!LO:N:vis=00	!	!	!	!	!	!	!	!
1D/;	.	.	.	.	.	.	.	.
!	!	!	!	!	!	!LO:LB:g=original	!	!
=21||	=21||	=21||	=21||	=21||	=21||	=21||	=21||	=21||
*	*	*	*lig	*	*	*	*	*
1G	Ve-	A-	1C	Ve-	A-	1cc	Ve-	A-
2F\	.	.	1D	.	.	2a/	.	.
1D	.	.	.	.	.	2dd\	.	.
*	*	*	*Xlig	*	*	*	*	*
=22	=22	=22	=22	=22	=22	=22	=22	=22
*	*	*	*lig	*	*	*	*	*
.	.	.	1E	.	.	2b\	.	.
2C/	.	.	.	.	.	2cc\	.	.
!LO:SIC:v:t=custos BB-	!	!	!	!	!	!	!	!
1D	.	.	1F	.	.	2a/	.	.
.	.	.	.	.	.	2f/	.	.
*	*	*	*Xlig	*	*	*	*	*
!LO:LB:g=original	!	!	!	!	!	!	!	!
=23	=23	=23	=23	=23	=23	=23	=23	=23
*	*	*	*lig	*	*	*lig	*	*
2BB-X/	.	.	1D	.	.	1b	.	.
2GG/	.	.	.	.	.	.	.	.
1AA	.	.	1C	.	.	1cc	.	.
*	*	*	*Xlig	*	*	*Xlig	*	*
=24	=24	=24	=24	=24	=24	=24	=24	=24
1GG	-ni,	-ve	1D	-ni,	-ve	1b	-ni,	-ve
1D	san-	vir-	1D	san-	vir-	1ff	san-	vir-
=25	=25	=25	=25	=25	=25	=25	=25	=25
1C	-cte	-go	1E	.	.	1ee	-cte	-go
*	*	*	*lig	*	*	*	*	*
2BB/	.	.	1F	-cte	-go	1dd	.	.
2D\	.	.	.	.	.	.	.	.
=26	=26	=26	=26	=26	=26	=26	=26	=26
!	!	!	!	!	!	!LO:SIC:v:t=custos ff	!	!
2C/	.	.	1G	.	.	2ee\	.	.
!	!	!	!	!	!	!LO:LB:g=original	!	!
2BB/	.	.	.	.	.	1ff	.	.
*	*	*	*Xlig	*	*	*	*	*
*	*	*	*lig	*	*	*	*	*
1C	Spi-	ma-	1G	Spi-	ma-	.	.	.
.	.	.	.	.	.	2ee\	.	.
=27	=27	=27	=27	=27	=27	=27	=27	=27
!	!	!	!LO:SIC:v:t=custos G	!	!	!	!	!
2FF/	.	.	1F	.	.	1ff	Spi-	ma-
1AA	.	.	.	.	.	.	.	.
!	!	!	!LO:LB:g=original	!	!	!	!	!
*	*	*	*Xlig	*	*	*	*	*
*	*	*	*lig	*	*	*	*	*
.	.	.	1G	.	.	1dd	.	.
2GG/	.	.	.	.	.	.	.	.
=28	=28	=28	=28	=28	=28	=28	=28	=28
!LO:SIC:v:t=custos FF	!	!	!	!	!	!	!	!
1AA	.	.	1E	.	.	1cc	.	.
*	*	*	*Xlig	*	*	*	*	*
!LO:LB:g=original	!	!	!	!	!	!	!	!
2FF/	.	.	0F	.	.	2cc\	.	.
1BB	.	.	.	.	.	1dd	.	.
=29	=29	=29	=29	=29	=29	=29	=29	=29
.	.	.	.	.	.	.	.	.
2FF/	.	.	.	.	.	1cc	.	.
1GG	.	.	1D	.	.	.	.	.
.	.	.	.	.	.	2b\	.	.
=30	=30	=30	=30	=30	=30	=30	=30	=30
*	*	*	*lig	*	*	*	*	*
1FF	.	.	1F	.	.	1cc	.	.
*lig	*	*	*	*	*	*	*	*
1BB	.	.	1D	.	.	1dd	.	.
*	*	*	*Xlig	*	*	*	*	*
=31	=31	=31	=31	=31	=31	=31	=31	=31
*Xlig	*	*	*lig	*	*	*	*	*
1AA	-ri-	-ri-	1C	-ri-	-ri-	1ee	-ri-	-ri-
1D	.	.	1D	.	.	1a	.	.
*	*	*	*Xlig	*	*	*	*	*
=32	=32	=32	=32	=32	=32	=32	=32	=32
2D/	.	.	1D	-tus,	-a	2a/	-tus,	-a
!	!	!	!	!	!	!LO:SIC:v:t=custos a	!	!
2GG/	-tus,	-a	.	.	.	2b/	.	.
!	!	!	!	!	!	!LO:LB:g=original	!	!
2D/	.	.	1F	re-	ce-	2a/	re-	ce-
2BB/	re-	ce-	.	.	.	1dd	-ple	-li
=33	=33	=33	=33	=33	=33	=33	=33	=33
*	*	*	*lig	*	*	*	*	*
1C	-ple	-li	1E	-ple	-li	.	.	.
.	.	.	.	.	.	1cc	.	.
1GG	.	.	1D	.	.	.	.	.
.	.	.	.	.	.	2b\	.	.
*	*	*	*Xlig	*	*	*	*	*
=34	=34	=34	=34	=34	=34	=34	=34	=34
*	*	*	*lig	*	*	*	*	*
1G	.	.	1C	.	.	1cc	.	.
*	*	*	*	*	*	*lig	*	*
!LO:SIC:v:t=custos C	!	!	!	!	!	!	!	!
2E/	.	.	1E	.	.	1g	.	.
!LO:LB:g=original	!	!	!	!	!	!	!	!
2C/	.	.	.	.	.	.	.	.
*	*	*	*Xlig	*	*	*	*	*
=35	=35	=35	=35	=35	=35	=35	=35	=35
*	*	*	*lig	*	*	*	*	*
1D	.	.	1D	.	.	1f	.	.
*lig	*	*	*	*	*	*Xlig	*	*
1C	.	.	1E	.	.	1g	.	.
*	*	*	*Xlig	*	*	*	*	*
=36	=36	=36	=36	=36	=36	=36	=36	=36
*	*	*	*lig	*	*	*	*	*
1FF	.	.	1F	.	.	1a	.	.
*Xlig	*	*	*	*	*	*	*	*
1GG	tu-	re-	1D	.	.	2g/	tu-	re-
.	.	.	.	.	.	1dd	-o-	-gi-
*	*	*	*Xlig	*	*	*	*	*
=37	=37	=37	=37	=37	=37	=37	=37	=37
*lig	*	*	*	*	*	*	*	*
!	!	!	!LO:SIC:v:t=custos F	!	!	!	!	!
1GG	-o-	-gi-	1D	tu-	re-	.	.	.
.	.	.	.	.	.	2b/	.	.
!	!	!	!LO:LB:g=original	!	!	!	!	!
*	*	*	*lig	*	*	*	*	*
1FF	.	.	1F	-o-	-gi-	2cc/	-rum	-na
.	.	.	.	.	.	2dd/	.	.
*Xlig	*	*	*	*	*	*	*	*
=38	=38	=38	=38	=38	=38	=38	=38	=38
1C	-rum	-na	1E	.	.	2ee/	.	.
!	!	!	!	!	!	!LO:SIC:v:t=custos ff	!	!
.	.	.	.	.	.	2cc/	.	.
!	!	!	!	!	!	!LO:LB:g=original	!	!
*	*	*	*Xlig	*	*	*	*	*
*	*	*	*lig	*	*	*lig	*	*
1D	.	.	1F	-rum	-na	1ff	.	.
=39	=39	=39	=39	=39	=39	=39	=39	=39
1C	cor-	mun-	1G	.	.	1ee	.	.
*	*	*	*Xlig	*	*	*Xlig	*	*
1GG	-da	-di	1G	cor-	mun-	2ee\	cor-	mun-
.	.	.	.	.	.	1dd	-da	-di
=40	=40	=40	=40	=40	=40	=40	=40	=40
*	*	*	*lig	*	*	*	*	*
1AA	.	.	1E	-da	-di	.	.	.
.	.	.	.	.	.	2cc/	.	.
1BB	.	.	1D	.	.	1dd	.	.
*	*	*	*Xlig	*	*	*	*	*
=41	=41	=41	=41	=41	=41	=41	=41	=41
2FF/	fi-	et	1F	.	.	1cc	fi-	et
1F	-de-	do-	.	.	.	.	.	.
.	.	.	1F	fi-	et	2a/	-de-	do-
!LO:SIC:v:t=custos G	!	!	!	!	!	!	!	!
1A	.	.	.	.	.	1dd	.	.
!LO:LB:g=original	!	!	!	!	!	!	!	!
=42	=42	=42	=42	=42	=42	=42	=42	=42
*	*	*	*lig	*	*	*	*	*
.	.	.	1E	-de-	do-	.	.	.
2G\	.	.	.	.	.	2cc/	.	.
2A\	.	.	1F	.	.	1dd	.	.
2F\	.	.	.	.	.	.	.	.
*	*	*	*Xlig	*	*	*	*	*
=43	=43	=43	=43	=43	=43	=43	=43	=43
2A\	-li-	-mi-	1D	.	.	2dd/	.	.
2B\	.	.	.	.	.	1ff	-li-	-mi-
*	*	*	*lig	*	*	*	*	*
1c	.	.	1C	-li-	-mi-	.	.	.
.	.	.	.	.	.	2ee/	.	.
=44	=44	=44	=44	=44	=44	=44	=44	=44
2B-X\	-um	-na	1D	.	.	0ff	-um	-na
1A	et	su-	.	.	.	.	.	.
*	*	*	*Xlig	*	*	*	*	*
.	.	.	1D	-um	-na	.	.	.
2F\	.	.	.	.	.	.	.	.
=45	=45	=45	=45	=45	=45	=45	=45	=45
!	!	!	!LO:SIC:v:t=custos G	!	!	!LO:SIC:v:t=custos gg	!	!
1G	tu-	-sci-	1E	et	su-	2ee/	et	su-
!	!	!	!LO:LB:g=original	!	!	!LO:LB:g=original	!	!
.	.	.	.	.	.	1gg	tu-	-sci-
2E\	-i	-pe	1G	tu-	-sci-	.	.	.
1C	.	.	.	.	.	1ee	-i	-pe
=46	=46	=46	=46	=46	=46	=46	=46	=46
*	*	*	*lig	*	*	*	*	*
.	.	.	1G	-i	-pe	.	.	.
2BB/	.	.	.	.	.	2dd/	.	.
2AA/	a-	tu-	1A	.	.	1cc	.	.
!LO:SIC:v:t=custos F	!	!	!	!	!	!	!	!
1A	.	.	.	.	.	.	.	.
*	*	*	*Xlig	*	*	*	*	*
!LO:LB:g=original	!	!	!	!	!	!	!	!
=47	=47	=47	=47	=47	=47	=47	=47	=47
.	.	.	1A	a-	tu-	2cc/	a-	tu-
1F	-mo-	-o-	.	.	.	1a	-mo-	-o-
*	*	*	*lig	*	*	*	*	*
.	.	.	1c	-mo-	-o-	.	.	.
2E\	.	.	.	.	.	1g	.	.
=48	=48	=48	=48	=48	=48	=48	=48	=48
1D	.	.	1A	.	.	.	.	.
.	.	.	.	.	.	2f/	.	.
*	*	*	*Xlig	*	*	*	*	*
2GG/	.	.	0G	.	.	1g	.	.
2C/	.	.	.	.	.	.	.	.
=49	=49	=49	=49	=49	=49	=49	=49	=49
2BB/	.	.	.	.	.	2dd/	.	.
2C/	.	.	.	.	.	2cc/	.	.
2D\	.	.	1F	.	.	2a/	.	.
2BB/	.	.	.	.	.	1dd	.	.
=50	=50	=50	=50	=50	=50	=50	=50	=50
1C	.	.	1E	.	.	.	.	.
.	.	.	.	.	.	1cc	.	.
1GG	.	.	1D	.	.	.	.	.
.	.	.	.	.	.	2b/	.	.
=51	=51	=51	=51	=51	=51	=51	=51	=51
*lig	*	*	*lig	*	*	*	*	*
!	!	!	!	!	!	!LO:SIC:v:t=custos a	!	!
1C	.	.	1E	.	.	1cc	.	.
!	!	!	!	!	!	!LO:LB:g=original	!	!
*	*	*	*	*	*	*lig	*	*
1FF	.	.	1F	.	.	1a	.	.
*Xlig	*	*	*Xlig	*	*	*	*	*
=52	=52	=52	=52	=52	=52	=52	=52	=52
*lig	*	*	*lig	*	*	*	*	*
1GG	.	.	1D	.	.	1g	.	.
*	*	*	*	*	*	*Xlig	*	*
1AA	.	.	1C	.	.	2e/	.	.
.	.	.	.	.	.	1ee	.	.
*Xlig	*	*	*Xlig	*	*	*	*	*
=53	=53	=53	=53	=53	=53	=53	=53	=53
*	*	*	*lig	*	*	*	*	*
!LO:SIC:v:t=custos BB	!	!	!	!	!	!	!	!
!LO:N:vis=2	!	!	!	!	!	!	!	!
1GG	.	.	1D	.	.	.	.	.
.	.	.	.	.	.	1dd	.	.
!LO:LB:g=original	!	!	!	!	!	!	!	!
2BB/	.	.	1E	.	.	.	.	.
1AA	.	.	.	.	.	2cc\	.	.
*	*	*	*Xlig	*	*	*	*	*
=54	=54	=54	=54	=54	=54	=54	=54	=54
*	*	*	*lig	*	*	*	*	*
.	.	.	1G	.	.	1dd	.	.
1GG	.	.	.	.	.	.	.	.
!	!	!	!LO:SIC:v:t=custos c	!	!	!	!	!
.	.	.	1A	.	.	2dd\	.	.
2D\	.	.	.	.	.	1a	.	.
!	!	!	!LO:LB:g=original	!	!	!	!	!
*	*	*	*Xlig	*	*	*	*	*
=55	=55	=55	=55	=55	=55	=55	=55	=55
*	*	*	*lig	*	*	*	*	*
1F	.	.	1c	.	.	.	.	.
.	.	.	.	.	.	1g	.	.
2E\	.	.	1A	.	.	.	.	.
1D	.	.	.	.	.	2f/	.	.
*	*	*	*Xlig	*	*	*	*	*
=56	=56	=56	=56	=56	=56	=56	=56	=56
.	.	.	0G	.	.	1g	.	.
2GG/	.	.	.	.	.	.	.	.
2C/	.	.	.	.	.	2dd\	.	.
2BB/	.	.	.	.	.	2cc\	.	.
=57	=57	=57	=57	=57	=57	=57	=57	=57
*	*	*	*lig	*	*	*	*	*
2C/	.	.	1F	.	.	2a/	.	.
2D\	.	.	.	.	.	1dd	.	.
2BB/	.	.	1E	.	.	.	.	.
!	!	!	!	!	!	!LO:SIC:v:t=custos b	!	!
1C	.	.	.	.	.	1cc	.	.
!	!	!	!	!	!	!LO:LB:g=original	!	!
*	*	*	*Xlig	*	*	*	*	*
*	*	*	*	*	*	*clefC4	*	*
=58	=58	=58	=58	=58	=58	=58	=58	=58
*	*	*	*lig	*	*	*	*	*
.	.	.	1D	.	.	.	.	.
!	!	!	!	!	!	!LO:N:vis=2/	!	!
1GG	.	.	.	.	.	1b/	.	.
.	.	.	1E	.	.	.	.	.
!LO:SIC:v:t=custos FF	!	!	!	!	!	!	!	!
1C	.	.	.	.	.	1cc	.	.
*	*	*	*Xlig	*	*	*	*	*
!LO:LB:g=original	!	!	!	!	!	!	!	!
=59	=59	=59	=59	=59	=59	=59	=59	=59
*	*	*	*lig	*	*	*	*	*
.	.	.	1F	.	.	.	.	.
*	*	*	*	*	*	*lig	*	*
1FF	.	.	.	.	.	1a	.	.
.	.	.	1D	.	.	.	.	.
1GG	.	.	.	.	.	1g	.	.
*lig	*	*	*	*	*	*	*	*
*	*	*	*Xlig	*	*	*Xlig	*	*
=60	=60	=60	=60	=60	=60	=60	=60	=60
.	.	.	0C	.	.	.	.	.
1AA	.	.	.	.	.	1e	.	.
*Xlig	*	*	*	*	*	*	*	*
1FF	.	.	.	.	.	2c/	.	.
=61	=61	=61	=61	=61	=61	=61	=61	=61
*	*	*	*lig	*	*	*	*	*
.	.	.	1D	.	.	1cc	.	.
1AA	.	.	.	.	.	.	.	.
.	.	.	1F	.	.	2b/	.	.
1GG	.	.	.	.	.	0cc	-ris	-ru(m)
*lig	*	*	*	*	*	*	*	*
*	*	*	*Xlig	*	*	*	*	*
=62	=62	=62	=62	=62	=62	=62	=62	=62
.	.	.	1F	-ris	-rum	.	.	.
1FF	-ris	-rum	.	.	.	.	.	.
.	.	.	1E	in	de	.	.	.
*	*	*	*lig	*	*	*	*	*
*Xlig	*	*	*	*	*	*lig	*	*
1FF	in	de	.	.	.	1g	in	de
=63	=63	=63	=63	=63	=63	=63	=63	=63
.	.	.	1C	.	.	.	.	.
1C	.	.	.	.	.	1a	e-	no-
*lig	*	*	*	*	*	*	*	*
*	*	*	*Xlig	*	*	*	*	*
*	*	*	*lig	*	*	*	*	*
.	.	.	1D	e-	no-	.	.	.
1AA	e-	no-	.	.	.	1b	.	.
*Xlig	*	*	*	*	*	*	*	*
=64	=64	=64	=64	=64	=64	=64	=64	=64
.	.	.	1E	.	.	.	.	.
1GG	.	.	.	.	.	2b/	.	.
*	*	*	*Xlig	*	*	*	*	*
*	*	*	*lig	*	*	*	*	*
.	.	.	1F	.	.	2cc/	.	.
1G	.	.	.	.	.	1dd	.	.
=65	=65	=65	=65	=65	=65	=65	=65	=65
.	.	.	1D	.	.	.	.	.
!	!	!	!	!	!	!LO:SIC:v:t=custos ff	!	!
1A	.	.	.	.	.	2dd\	-is	-tas
!	!	!	!	!	!	!LO:LB:g=original	!	!
*	*	*	*Xlig	*	*	*clefC3	*	*
!	!	!	!LO:SIC:v:t=custos C	!	!	!	!	!
.	.	.	1D	-is	-tas	1ff	.	.
2B\	-is	-tas	.	.	.	.	.	.
!	!	!	!LO:LB:g=original	!	!	!	!	!
=66	=66	=66	=66	=66	=66	=66	=66	=66
1A	i-	lau-	1C	i-	lau-	2dd\	i-	lau-
.	.	.	.	.	.	2gg\	-gnem	-des
2F\	-gnem	-des	1D	-gnem	-des	2ee\	.	.
!LO:SIC:v:t=custos A	!	!	!	!	!	!	!	!
2G\	ac-	ser-	.	.	.	1dd	ac-	ser-
!LO:LB:g=original	!	!	!	!	!	!	!	!
=67	=67	=67	=67	=67	=67	=67	=67	=67
*	*	*	*lig	*	*	*	*	*
1A	.	.	1E	ac-	ser-	.	.	.
.	.	.	.	.	.	2b\	.	.
2F\	.	.	1F	.	.	2cc\	.	.
1G	.	.	.	.	.	2f/	.	.
*	*	*	*Xlig	*	*	*	*	*
=68	=68	=68	=68	=68	=68	=68	=68	=68
.	.	.	1D	.	.	1a	.	.
2A\	.	.	.	.	.	.	.	.
2AA/	.	.	1C	-cen-	-vo-	2g/	.	.
1BB-X	.	.	.	.	.	1a	-cen-	-vo-
=69	=69	=69	=69	=69	=69	=69	=69	=69
.	.	.	[0D;l	-de.	-rum	.	.	.
1AA	-cen-	-vo-	.	.	.	[1.;al	-de.	-rum
[2D/;l	-de.	-rum	.	.	.	.	.	.
=70	=70	=70	=70	=70	=70	=70	=70	=70
0D]	.	.	0D]	.	.	0a]	.	.
==	==	==	==	==	==	==	==	==
*-	*-	*-	*-	*-	*-	*-	*-	*-
!!!system-decoration: [(s1,s2,s3)]
!!!AIN: 1 bass 1 soprn 1 tenor
!!!ENC: Arkadiusz Malec
!!!END: 2020-01-15
!!!ENC: Natalia Wrzos
!!!END: 2022-01-24
!!!RDF**kern: l = terminal long
